frontend/public/shopping-bag.svg

<svg width="16" height="18" viewBox="0 0 16 18" fill="none" xmlns="http://www.w3.org/2000/svg">
<path fill-rule="evenodd" clip-rule="evenodd" d="M2.9 1.05C3.04164 0.861146 3.26393 0.75 3.5 0.75H12.5C12.7361 0.75 12.9584 0.861146 13.1 1.05L15.35 4.05C15.4474 4.17982 15.5 4.33772 15.5 4.5V15C15.5 15.5967 15.2629 16.169 14.841 16.591C14.419 17.0129 13.8467 17.25 13.25 17.25H2.75C2.15326 17.25 1.58097 17.0129 1.15901 16.591C0.737053 16.169 0.5 15.5967 0.5 15V4.5C0.5 4.33772 0.552633 4.17982 0.65 4.05L2.9 1.05ZM3.875 2.25L2.75 3.75H13.25L12.125 2.25H3.875ZM14 5.25H2V15C2 15.1989 2.07902 15.3897 2.21967 15.5303C2.36032 15.671 2.55109 15.75 2.75 15.75H13.25C13.4489 15.75 13.6397 15.671 13.7803 15.5303C13.921 15.3897 14 15.1989 14 15V5.25ZM5 6.75C5.41421 6.75 5.75 7.08579 5.75 7.5C5.75 8.09674 5.98705 8.66903 6.40901 9.09099C6.83097 9.51295 7.40326 9.75 8 9.75C8.59674 9.75 9.16903 9.51295 9.59099 9.09099C10.0129 8.66903 10.25 8.09674 10.25 7.5C10.25 7.08579 10.5858 6.75 11 6.75C11.4142 6.75 11.75 7.08579 11.75 7.5C11.75 8.49456 11.3549 9.44839 10.6517 10.1517C9.94839 10.8549 8.99456 11.25 8 11.25C7.00544 11.25 6.05161 10.8549 5.34835 10.1517C4.64509 9.44839 4.25 8.49456 4.25 7.5C4.25 7.08579 4.58579 6.75 5 6.75Z" fill="#284CE5"/>
</svg>

<svg xmlns="http://www.w3.org/2000/svg" width="16" height="18" fill="none"><path fill="#284CE5" fill-rule="evenodd" d="M2.9 1.05a.75.75 0 0 1 .6-.3h9a.75.75 0 0 1 .6.3l2.25 3a.75.75 0 0 1 .15.45V15a2.25 2.25 0 0 1-2.25 2.25H2.75A2.25 2.25 0 0 1 .5 15V4.5a.75.75 0 0 1 .15-.45zm.975 1.2L2.75 3.75h10.5l-1.125-1.5zM14 5.25H2V15a.75.75 0 0 0 .75.75h10.5A.75.75 0 0 0 14 15zm-9 1.5a.75.75 0 0 1 .75.75 2.25 2.25 0 1 0 4.5 0 .75.75 0 0 1 1.5 0 3.75 3.75 0 0 1-7.5 0A.75.75 0 0 1 5 6.75" clip-rule="evenodd"/></svg>
